src/cmd/lc_entirecell.svg

<svg viewBox="0 0 24 24" xmlns="http://www.w3.org/2000/svg"><path d="m4 4v1 15h1 8v-1h-3v-2h3v-1h-3v-1-1h3v-1h-3v-2h4v1h1v-1h4v2h-1v1h2v-9-1zm1 1h4v1 1h-1-3zm5 0h4v1 1h-4v-1zm5 0h4v2h-3-1v-1zm-10 3h3 1v1 1h-4v-1zm5 0h4v1 1h-4v-1zm5 0h4v1 1h-4v-1zm-10 3h4v2h-4zm0 3h4v1 1h-1-3v-1zm0 3h3 1v1.099609.900391h-4z" fill="#232629"/><path d="m9 10v4h4v-1h-3v-2h4v1h1v-2zm5 3v9l2.400391-4h3.599609z" fill="#762572"/></svg>

<?xml version="1.0" encoding="UTF-8" standalone="no"?>
<svg
   xmlns:dc="http://purl.org/dc/elements/1.1/"
   xmlns:cc="http://creativecommons.org/ns#"
   xmlns:rdf="http://www.w3.org/1999/02/22-rdf-syntax-ns#"
   xmlns:svg="http://www.w3.org/2000/svg"
   xmlns="http://www.w3.org/2000/svg"
   xmlns:sodipodi="http://sodipodi.sourceforge.net/DTD/sodipodi-0.dtd"
   xmlns:inkscape="http://www.inkscape.org/namespaces/inkscape"
   viewBox="0 0 24 24"
   version="1.1"
   id="svg6"
   sodipodi:docname="lc_entirecell.svg"
   inkscape:version="0.92.4 (5da689c313, 2019-01-14)">
  <metadata
     id="metadata12">
    <rdf:RDF>
      <cc:Work
         rdf:about="">
        <dc:format>image/svg+xml</dc:format>
        <dc:type
           rdf:resource="http://purl.org/dc/dcmitype/StillImage" />
      </cc:Work>
    </rdf:RDF>
  </metadata>
  <defs
     id="defs10" />
  <sodipodi:namedview
     pagecolor="#ffffff"
     bordercolor="#666666"
     borderopacity="1"
     objecttolerance="10"
     gridtolerance="10"
     guidetolerance="10"
     inkscape:pageopacity="0"
     inkscape:pageshadow="2"
     inkscape:window-width="1920"
     inkscape:window-height="1011"
     id="namedview8"
     showgrid="true"
     inkscape:zoom="45.254834"
     inkscape:cx="7.3413854"
     inkscape:cy="7.5064122"
     inkscape:window-x="0"
     inkscape:window-y="32"
     inkscape:window-maximized="1"
     inkscape:current-layer="svg6">
    <inkscape:grid
       type="xygrid"
       id="grid822" />
  </sodipodi:namedview>
  <path
     d="M 7,4 C 5,4 4,4 4,6 v 12 c 0,2 1,2 3,2 h 6 v -1 h -3 v -2 h 3 v -1 h -3 v -1 -1 h 3 v -1 h -3 v -2 h 4 v 1 h 1 v -1 h 4 v 2 h -1 v 1 h 2 V 6 C 20,4 19,4 17,4 Z M 5,6 C 5,5 6,5 7,5 H 9 V 6 7 H 8 5 Z m 5,-1 h 4 V 6 7 H 10 V 6 Z m 5,0 h 2 c 1,0 2,0 2,1 V 7 H 16 15 V 6 Z M 5,8 h 3 1 v 1 1 H 5 V 9 Z m 5,0 h 4 v 1 1 H 10 V 9 Z m 5,0 h 4 v 1 1 H 15 V 9 Z M 5,11 h 4 v 2 H 5 Z m 0,3 h 4 v 1 1 H 8 5 v -1 z m 0,3 H 8 9 V 18.099609 19 H 7 C 6,19 5,19 5,18 Z"
     id="path2"
     inkscape:connector-curvature="0"
     style="fill:#232629"
     sodipodi:nodetypes="ccccccccccccccccccccccccccccccccccccccccccccccccccccccccccccccccccccccccccccccccccccccccccccccc" />
  <path
     d="m9 10v4h4v-1h-3v-2h4v1h1v-2zm5 3v9l2.400391-4h3.599609z"
     fill="#762572"
     id="path4" />
</svg>
